web/packages/design/src/ResourceIcon/assets/cloudzero.svg

<svg width="72" height="72" viewBox="0 0 72 72" fill="none" xmlns="http://www.w3.org/2000/svg">
<path d="M58.5328 7.38784L47.5472 1.04587L36.0002 7.71243L24.4533 1.04541L11.5469 8.49662L11.5474 21.8302L0 28.4967V41.1821C0 50.7736 5.16013 59.7123 13.4677 64.5081L24.4533 70.8505L36.0002 64.184L47.5472 70.8505L60.4531 63.3998V50.0662L72 43.3996V30.7143C72 21.1223 66.8394 12.1841 58.5328 7.38784ZM46.1887 30.0661V41.8303L36.0002 47.7127L25.8117 41.8303V30.0661L36.0002 24.1828L46.1887 30.0661ZM23.0944 42.0148L14.1048 47.205V36.6406L23.0944 31.4504V42.0148ZM15.3038 49.2815L24.2933 44.0918L33.4424 49.3735L24.4533 54.5637L16.0764 49.7277L15.3038 49.2815ZM38.5581 49.3735L47.7072 44.0918L56.6962 49.2815L47.5472 54.5637L38.5581 49.3735ZM34.8013 21.7377L25.6518 27.0199V16.64L34.8013 11.3578V21.7377ZM22.0549 29.2814L12.9059 34.5631L3.9168 29.3734L13.0659 24.0912L18.0364 26.9612L22.0549 29.2814ZM24.4533 14.5635L15.4637 9.37283L24.4533 4.18356L33.4424 9.37283L24.4533 14.5635ZM46.9059 14.1936L38.5576 9.37283L47.5472 4.1831L57.1739 9.74088C64.6431 14.053 69.2826 22.0896 69.2826 30.7143V41.8299L60.2935 47.0196V37.3809C60.2935 27.8457 55.1635 18.9607 46.9059 14.1931V14.1936ZM25.6522 56.6407L34.8013 51.3581V61.7384L25.6518 67.0206L25.6522 56.6407ZM48.7461 56.6407L57.7357 51.4505V61.8305L48.7461 67.0206V56.6407Z" fill="#FE552E"/>
</svg>

<svg xmlns="http://www.w3.org/2000/svg" width="72" height="72" fill="none" viewBox="0 0 72 72"><path fill="#fe552e" d="M58.533 7.388 47.547 1.046 36 7.712 24.453 1.045 11.547 8.497V21.83L0 28.497v12.685c0 9.592 5.16 18.53 13.468 23.326l10.985 6.343L36 64.183l11.547 6.666 12.906-7.45V50.066L72 43.4V30.714c0-9.592-5.16-18.53-13.467-23.326M46.189 30.066V41.83L36 47.713 25.812 41.83V30.066L36 24.183zM23.094 42.015l-8.99 5.19V36.641l8.99-5.19zm-7.79 7.267 8.99-5.19 9.148 5.282-8.989 5.19-8.377-4.836zm23.254.092 9.15-5.282 8.988 5.19-9.149 5.282zm-3.757-27.636-9.15 5.282V16.64l9.15-5.282zM22.055 29.28l-9.15 5.282-8.988-5.19 9.149-5.282 4.97 2.87zm2.398-14.717-8.99-5.191 8.99-5.19 8.99 5.19zm22.453-.37-8.348-4.821 8.99-5.19 9.626 5.558c7.47 4.312 12.109 12.349 12.109 20.973V41.83l-8.99 5.19v-9.64c0-9.534-5.13-18.42-13.387-23.187M25.652 56.64l9.15-5.283v10.38l-9.15 5.283zm23.094 0 8.99-5.19v10.38l-8.99 5.19z"/></svg>
